app/assets/images/heroicons/micro/arrows-right-left.svg

<svg width="16" height="16" viewBox="0 0 16 16" fill="none" xmlns="http://www.w3.org/2000/svg">
<path fill-rule="evenodd" clip-rule="evenodd" d="M10.4697 2.21967C10.7626 1.92678 11.2374 1.92678 11.5303 2.21967L13.7803 4.46967C14.0732 4.76256 14.0732 5.23744 13.7803 5.53033L11.5303 7.78033C11.2374 8.07322 10.7626 8.07322 10.4697 7.78033C10.1768 7.48744 10.1768 7.01256 10.4697 6.71967L11.4393 5.75H5.75C5.33579 5.75 5 5.41421 5 5C5 4.58579 5.33579 4.25 5.75 4.25H11.4393L10.4697 3.28033C10.1768 2.98744 10.1768 2.51256 10.4697 2.21967ZM5.53033 8.21967C5.82322 8.51256 5.82322 8.98744 5.53033 9.28033L4.56066 10.25L10.25 10.25C10.6642 10.25 11 10.5858 11 11C11 11.4142 10.6642 11.75 10.25 11.75L4.56066 11.75L5.53033 12.7197C5.82322 13.0126 5.82322 13.4874 5.53033 13.7803C5.23744 14.0732 4.76256 14.0732 4.46967 13.7803L2.21967 11.5303C1.92678 11.2374 1.92678 10.7626 2.21967 10.4697L4.46967 8.21967C4.76256 7.92678 5.23744 7.92678 5.53033 8.21967Z" fill="#0F172A"/>
</svg>

<svg xmlns="http://www.w3.org/2000/svg" viewBox="0 0 16 16" fill="currentColor" aria-hidden="true" data-slot="icon">
  <path fill-rule="evenodd" d="M10.47 2.22a.75.75 0 0 1 1.06 0l2.25 2.25a.75.75 0 0 1 0 1.06l-2.25 2.25a.75.75 0 1 1-1.06-1.06l.97-.97H5.75a.75.75 0 0 1 0-1.5h5.69l-.97-.97a.75.75 0 0 1 0-1.06Zm-4.94 6a.75.75 0 0 1 0 1.06l-.97.97h5.69a.75.75 0 0 1 0 1.5H4.56l.97.97a.75.75 0 1 1-1.06 1.06l-2.25-2.25a.75.75 0 0 1 0-1.06l2.25-2.25a.75.75 0 0 1 1.06 0Z" clip-rule="evenodd"/>
</svg>
